city-switch.svg

<svg fill="currentColor" viewBox="0 0 24 24"><path d="M21 15V9h-6V3l-3-3-3 3v2H3v10zm-2-2h-2v-2h2zm-8-8V3h2v2zm0 4V7h2v2zm0 4v-2h2v2zM7 9H5V7h2zm0 4H5v-2h2zm2 4v2h6v-2l3 3-3 3v-2H9v2l-3-3z"/></svg>

<svg  viewBox="0 0 24 24" fill="currentColor"><path  d="M21 15V9H15V3L12 0L9 3V5H3V15H21M19 13H17V11H19V13M11 5V3H13V5H11M11 9V7H13V9H11M11 13V11H13V13H11M7 9H5V7H7V9M7 13H5V11H7V13M9 17V19H15V17L18 20L15 23V21H9V23L6 20L9 17Z"/></svg>
